X:1
T:On Eastern Plain Reclining
T:On Eastern Plain Reclining
T:Joseph Lincoln Hall
T:Irvin H. Mack, 1900
T:Public Domain Courtesy of the Cyber Hymnal™
T:Public Domain Courtesy of the Cyber Hymnal™
C:Joseph Lincoln Hall
Z:Public Domain
Z:Courtesy of the Cyber Hymnal™
%%score ( 1 2 ) 3
L:1/8
Q:1/4=100
M:3/4
K:A
V:1 treble 
V:2 treble 
V:3 bass 
V:1
 [CE]2 | [CE]3 [CA] [CG][CF] | [DF]2 [DE]2 [DE]2 | [DB]3 [DB] [DG][DF] | [CE]4 [Cc]2 | %5
w: 1.~On|eas- tern plain re-|clin- ing, In|dark and still- y|night, The|
w: 2.~Thro’|long un- num- bered|e- ons, Vast|mul- ti- tudes un-|born Will|
 [Cc]3 [Fc] [FB][FA] | [FA]2 [^EG]2"^riten." [EG]2 | [DF]3 [FG] [FA][FB] | %8
w: shep- herds see the|shin- ing Of|glor- ious, heav’n- ly|
w: sing in joy- ful|pae- ans Of|Christ on Christ- mas|
 [^Ec]4"^Solo ad lib." c2 | d3 B FG | F2 E2 c2 | e3 B ^AB | c4 c2 | c3 e dc | c2 B2 (GA) | %15
w: light. To|shep- herds poor and|low- ly, A-|mazed at such a|sight; They|sang of Christ the|ho- ly, His *|
w: morn. As|an- gels sang in|glo- ry Of|Christ, our Sav- ior’s|birth, So|men shall chant the|sto- ry Of *|
 e3 c !fermata![Ec][DB] | [CA]4- !fermata![CA] ||"^Refrain" [Ge] | [Ge]3"^Faster" [GB] [GB][Gc] | %19
w: mis- sion and His|might. *|||
w: peace, good will on|earth. *|||
 [GB]2 [EA]3 [^Ec] | [^Ec]3 [EG] [EA][EB] | [FA]2 F3 [FA] | [FA]3 [FA] [EG][DF] | %23
w: ||||
w: ||||
 [CE]2 [CA]2 [Ec]2 | [Ge]3 [GB] [Ge][EG] | [EA]4 |] %26
w: |||
w: |||
V:2
 x2 | x6 | x6 | x6 | x6 | x6 | x6 | x6 | x6 | x6 | x6 | x6 | x6 | x6 | x6 | x6 | x5 || x | x6 | %19
 x6 | x6 | x2 F3 x | x6 | x6 | x6 | x4 |] %26
V:3
 [A,,A,]2 | [A,,A,]3 [A,,A,] [A,,A,][A,,A,] | [E,G,]2 [E,G,]2 [E,G,]2 | %3
w: ~|~ ~ ~ ~|~ ~ ~|
 [E,G,]3 [E,G,] [E,B,][E,B,] | [A,,A,]4 [A,,A,]2 | [F,A,]3 [F,A,] [F,B,][F,C] | %6
w: ~ ~ ~ ~|~ ~|~ ~ ~ ~|
 [C,C]2 [C,C]2 [C,B,]2 | [D,A,]3 [D,A,] [D,F,][D,F,] | [C,G,]4 z2 | E,,2 [E,G,D]2 [E,G,D]2 | %10
w: ~ ~ ~|~ ~ ~ ~|~|~ ~ ~|
 A,,2 [E,A,C]2 [E,A,C]2 | E,,2 [E,G,D]2 [E,G,D]2 | A,,2 [E,A,C]2 [E,A,C]2 | %13
w: ~ ~ ~|~ ~ ~|~ ~ ~|
 F,,2 [F,^A,CE]2 [F,A,CE]2 | B,,2 [F,B,D]2 [F,B,D]2 | [E,A,C]4 [E,G,]2 | [A,,A,]4- [A,,A,] || %17
w: ~ ~ ~|~ ~ ~|~ ~|~ *|
 [E,D] | [E,D]3 [E,D] [E,D][E,E] | [A,D]2 [A,C]3 [C,G,] | [C,G,]3 [C,C] [C,C][C,C] | %21
w: Re-|joice! ye sag- es|hoa- ry, Re-|peat the won- drous|
 [F,A,]2 [F,A,]3 [D,A,] | [D,A,]3 [D,A,] [D,A,][D,A,] | [A,,A,]2 [A,,A,]2 [A,,A,]2 | %24
w: sto- ry, The|Lord of life and|glo- ry Is|
 [E,B,]3 [E,D] [E,B,][E,D] | [A,,A,C]4 |] %26
w: born our king to-|day.|

